X:1
T:5 Lieder, Op.10
T:Abendbild
T:3. Abendbild
T:Fanny (Mendelssohn) Hensel
T:Nikolaus Lenau
T:5 Lieder, Op.10
T:OpenScore (CC0)
T:OpenScore (CC0)
C:Fanny (Mendelssohn) Hensel
Z:Nikolaus Lenau
Z:OpenScore (CC0)
%%score 1 { 2 | ( 3 4 ) }
L:1/8
Q:1/4=130
M:6/8
K:Eb
V:1 treble nm="Voice"
V:2 treble nm="Piano"
V:3 bass 
V:4 bass 
V:1
"^Andante con moto  (Allegretto)" z6 | z6 | B3/2 =A/ B e2 B | G2 G F2 E | B3 A2 z | %5
w: ||Fried- li- cher A- bend|senkt sich auf's Ge-|fil- de,|
 f2 A A3/2 G/ A | B2 B =A2 B | e3 _A2 z | G2 F =E3/2 G/ B | (_d3 c) A F | E2 =D z d B | e3 F2 F | %12
w: sanft ent- schlum- mert Na-|tur, um ih- re|Zü- ge|schwebt der Däm- me- rung|zar- * te Ver-|hül- lung, und sie|lä- chelt, die|
 _G3 =A2 c | c2 B z2 D | F2 E z2 z | B3/2 c/ B (Bc) d | e2 d c2 G | B3 =A2 z | d2 B =A3/2 G/ ^F | %19
w: Hol- de, sie|lä- chelt, die|Hol- de;|lä- chelt, ein schlum- * mernd|Kind, in Va- ters|Ar- men,|der voll Lie- be zu|
 d2 B G2 =F | F3 =E3 | F2 G (A>G) F | c3/2 B/ A f2 e | e3 d3 | (e3 _c) A F | E6 | D3 z2 z | z6 | %28
w: ihr sich neigt, sein|gött- lich|Au- ge weilt * auf|ihr, und es weht sein|O- dem|ü- * ber ihr|Ant-|litz.||
 B3/2 =A/ B e2 B | G2 G F2 E | B3 A3 | f2 A A3/2 G/ A | B2 B =A2 B | e3 _A3 | G2 F =E3/2 G/ B | %35
w: Fried- li cher A- bend|senkt sich auf's Ge-|fil- de,|sanft ent- schlum- mert Na-|tur, um ih- re|Zü- ge|schwebt der Däm- me- rung|
 (_d3 c) A F | E2 =D z d B | e3 F2 F | _G3 =A2 c | c2 B z2 D | F2 E z2 E | e6 | B3 z2 E | A6 | %44
w: zar- * te Ver-|hül- lung; und sie|lä- chelt, die|hol- de, sie|lä- chelt, die|Hol- de, sie|lä-|chelt, die|Hol-|
 G3 z2 z | z6 | z6 |] %47
w: de!|||
V:2
 z [G,B,E][B,EG] [EGB][B,EG][G,B,E] | z [F,A,D][A,DF] [DFB][A,DF][F,A,D] | %2
 z [G,B,E][B,EG] [EGB][B,EG][G,B,E] | z [B,_DE][DEG] [EG_d][DEG][G,DE] | %4
 z [CEA][EAc] [Ace][EAc][CEA] | z [B,DA][DAB] [ABf][DAB][B,DA] | z [B,EG][EGB] z [B,F][FB] | %7
 z [B,E][EB] [Ae][EA][A,E] | z [G,_D=E][DEG] [EG_d][DEG][G,DE] | z [G,_D=E][DEB] [A,CF][CFA][FAc] | %10
 z [F,B,D][B,DF] [DFB][B,DF][F,B,D] | z [B,E][EB] z [CEF][EFc] | z [CE_G][EGc] z [=A,EG][EG=A] | %13
 z [G,B,E][B,EG] [A,DA]2 z | z [G,B,E][B,EG] [EGB][B,EG][G,B,E] | B>cB Bcd | e2 d c2 G | B3 =A3 | %18
 z [B,DG][DGB] z [E^F=A][FAe] | z [B,DG][DGB] [GBd][DGB][B,DG] | z [B,_D][DB] [B_d][DB][B,D] | %21
 z [CF][FA] [Ac][FA][CF] | z [A,C][CF] [FA][_CF][A,C] | z [A,B,][B,F] [FA][B,F][A,B,] | %24
 z [B,E][EB] z [_CEF][EF_c] | z [F,A,E][A,EF] [EF_c][A,EF][F,A,E] | %26
 z [F,A,D][A,DF] [DFB][A,DF][F,A,D] |"^Short \npause" z6 | %28
!ped! [Bb]>[=A=a][Bb] [ee']2 [Bb]!ped-up! | [Gg]2 [Gg] [Ff]2 [Ee] | [Bb]3 [Aa]3 | %31
 [ff']2 [Aa] [Aa]>[Gg][Aa] | [Bb]2 [Bb] [=A=a]2 [Bb] | [ee']3 [_A_a]3 | %34
 [Gg]2 [Ff] [=E=e]>[Gg][Bb] | [_d_d']3 [cc'][Aa][Ff] | [Ee]2 [Dd] z [dd'][Bb] | %37
 [ee'][B,E][EB] [ee'][CEF][EFc] | [ee'][CE_G][EGc] [dd']2 [cc'] | [cc']2 [Bb] [Ada]2 [A,D] | %40
 z [G,B,E][B,EG] [EGB][B,EG][G,B,E] | [e_gc'e']6 | [Begb][G,B,][B,E] [EG][B,E][G,B,] | [B,D]6 | %44
 z [G,B,E][B,EG] [EGB][B,EG][G,B,E] | [GBe][EGB][GBe] [Beg][GBe][EGB] | [gbg']6 |] %47
V:3
 [E,,E,]3 z2 z | [E,,E,]3 z2 z | [E,,E,]3 z2 z | [E,,E,]3 z2 z | [E,,E,]3 z2 z | [E,,E,]3 z2 z | %6
 [E,,E,]2 z [D,,D,]2 z | [C,,C,]3 z2 z | [B,,,B,,]3 z2 z | [A,,,A,,]3 z2 z | [A,,,A,,]3 z2 z | %11
 [G,,,G,,]2 z [A,,,A,,]2 z | [=A,,,=A,,]2 z [C,,C,]2 z | [B,,,B,,]2 z [B,,F,]2 z | [E,,E,]3 z2 z | %15
 [D,,D,][F,B,][B,D] [DF][B,D][F,B,] | [C,,C,][G,C][CE] [EG][CE][G,C] | %17
 [C,,C,][^F,=A,][A,D] [D^F][A,D][F,A,] | [G,,G,]3 C3 | [G,,G,]6 | [G,,G,]6 | [A,,A,]3 z2 z | %22
 [F,,F,]3 z2 z | [B,,,B,,]6 | [G,,,G,,]2 z [A,,,A,,]2 z | [B,,,B,,]3 z2 z | [B,,,B,,]3 z2 z | z6 | %28
 [E,,E,][G,B,][B,E] [EG][B,E][G,B,] | [E,,E,][E,B,][B,_D] [DE][B,D][G,B,] | %30
 [E,,E,][E,A,][A,C] [CE][A,C][E,A,] | [E,,E,][F,B,][B,D] [DF][B,D][F,B,] | %32
 [E,,E,][G,B,E][B,EG] [D,,D,][F,B,D][B,DF] | [C,,C,][E,B,][B,E] [CE][A,C][E,A,] | %34
 [B,,,B,,][=E,G,][G,B,] [B,_D][G,B,][E,G,] | [A,,,A,,][G,B,][B,=E] [A,,A,][A,C][CF] | %36
 [A,,,A,,][F,B,][B,D] [DF][B,D][F,B,] | [G,,,G,,]3 [A,,,A,,]3 | [=A,,,=A,,]3 [C,C][=A,E_G][EG=A] | %39
 [B,,B,][G,B,E][B,EG] [B,F]2 [B,,F,] | [E,,E,]3 z2 z | [E,,E,][=A,C][C_G] [G=A][CG][A,C] | %42
 [E,,E,]3 z2 z | F,6 | [E,,E,]3 z2 z | [E,,E,]3 z2 z | [E,,,E,,]6 |] %47
V:4
 x6 | x6 | x6 | x6 | x6 | x6 | x6 | x6 | x6 | x6 | x6 | x6 | x6 | x6 | x6 | x6 | x6 | x6 | x6 | %19
 x6 | x6 | x6 | x6 | x6 | x6 | x6 | x6 | x6 | x6 | x6 | x6 | x6 | x6 | x6 | x6 | x6 | x6 | x6 | %38
 x6 | x6 | x6 | x6 | x6 | [B,,,B,,]6 | x6 | x6 | x6 |] %47

